icons/svg/help-circle_24.svg

<svg width="24" height="24" viewBox="0 0 24 24" xmlns="http://www.w3.org/2000/svg"><title>alerts-and-notifications/help-circle_24</title><path d="M12 0c6.617 0 12 5.383 12 12 0 6.617-5.383 12-12 12-6.617 0-12-5.383-12-12C0 5.383 5.383 0 12 0m0 23c6.065 0 11-4.935 11-11 0-6.065-4.935-11-11-11C5.935 1 1 5.935 1 12c0 6.065 4.935 11 11 11m.122-17.999c2.136.062 3.941 1.925 3.941 4.07 0 1.823-1.005 2.662-1.812 3.338-.144.119-.284.237-.415.357l-.602.554c-.449.412-.706.999-.706 1.609 0 .277-.224.5-.5.5-.277 0-.5-.223-.5-.5 0-.888.375-1.742 1.029-2.345l.602-.554c.142-.131.294-.259.45-.388.748-.625 1.454-1.217 1.454-2.571 0-1.617-1.36-3.024-2.969-3.07-.816-.026-1.58.276-2.164.845-.618.599-.958 1.421-.958 2.308 0 .278-.224.5-.5.5-.276 0-.5-.222-.5-.5 0-1.16.448-2.236 1.261-3.026.78-.757 1.813-1.155 2.889-1.127M11.65 17.15c.19-.19.52-.19.71 0 .09.09.15.22.15.35 0 .13-.06.26-.15.35-.09.1-.22.15-.35.15-.07 0-.13-.01-.19-.04-.06-.02-.12-.06-.17-.11-.09-.09-.14-.22-.14-.35 0-.13.05-.26.14-.35" fill="#000" fill-rule="evenodd"/></svg>

<?xml version="1.0" encoding="UTF-8"?>
<svg width="24px" height="24px" viewBox="0 0 24 24" version="1.1" xmlns="http://www.w3.org/2000/svg" xmlns:xlink="http://www.w3.org/1999/xlink">
    <!-- Generator: Sketch 60.1 (88133) - https://sketch.com -->
    <title>alerts-and-notifications/help-circle_24</title>
    <desc>Created with Sketch.</desc>
    <g id="alerts-and-notifications/help-circle_24" stroke="none" stroke-width="1" fill="none" fill-rule="evenodd">
        <path d="M12,0 C18.617,0 24,5.383 24,12 C24,18.617 18.617,24 12,24 C5.383,24 0,18.617 0,12 C0,5.383 5.383,0 12,0 M12,23 C18.065,23 23,18.065 23,12 C23,5.935 18.065,1 12,1 C5.935,1 1,5.935 1,12 C1,18.065 5.935,23 12,23 M11.65,17.15 C11.84,16.96 12.17,16.96 12.36,17.15 C12.45,17.24 12.51,17.37 12.51,17.5 C12.51,17.63 12.45,17.76 12.36,17.85 C12.27,17.95 12.14,18 12.01,18 C11.94,18 11.88,17.99 11.82,17.96 C11.76,17.94 11.7,17.9 11.65,17.85 C11.56,17.76 11.51,17.63 11.51,17.5 C11.51,17.37 11.56,17.24 11.65,17.15 M12.122,5.001 C14.258,5.063 16.063,6.926 16.063,9.071 C16.063,10.894 15.058,11.733 14.251,12.409 C14.107,12.528 13.967,12.646 13.836,12.766 L13.234,13.32 C12.785,13.732 12.528,14.319 12.528,14.929 C12.528,15.206 12.304,15.429 12.028,15.429 C11.751,15.429 11.528,15.206 11.528,14.929 C11.528,14.041 11.903,13.187 12.557,12.584 L13.159,12.03 C13.301,11.899 13.453,11.771 13.609,11.642 C14.357,11.017 15.063,10.425 15.063,9.071 C15.063,7.454 13.703,6.047 12.094,6.001 C11.278,5.975 10.514,6.277 9.93,6.846 C9.312,7.445 8.972,8.267 8.972,9.154 C8.972,9.432 8.748,9.654 8.472,9.654 C8.196,9.654 7.972,9.432 7.972,9.154 C7.972,7.994 8.42,6.918 9.233,6.128 C10.013,5.371 11.046,4.973 12.122,5.001" id="fill" fill="#171B1F"></path>
    </g>
</svg>
